X: 3406
T: Berwick Billy
R: three-two
M: 3/2
K: Gmajor
|:dG Gd e/d/c/B/|dG Gd Bg|dG Gd e/d/c/B/|cA AB ce:|
g3/2a gd B/c/d/B/|g3/2a gd ef|g3/2a gd B/c/d/B/|cA AB ce|
g3/2a gd c/B/c/d/B/|ga gd ef|g/f/e/f/ g/f/e/d/ e/d/c/B/|cA AB ce||

